assets/features/channel/east-asia/webmoney.svg

<svg width="80" height="80" viewBox="0 0 80 80" fill="none" xmlns="http://www.w3.org/2000/svg">
<rect width="80" height="80" rx="8" fill="#135EAB"/>
<path fill-rule="evenodd" clip-rule="evenodd" d="M39.9252 20C43.0533 20 46.0162 20.7305 48.6552 22.0294C49.0692 22.2265 49.483 22.444 49.897 22.6823L48.0641 24.3312L45.3077 21.4708L40.6564 25.6352L37.8933 22.6084L29.2291 30.4487L34.7846 36.5925L32.6013 38.5198L38.0723 44.6744L35.9023 46.5963L43.7203 55.3312L48.3608 51.0422L52.3729 55.6379C51.576 56.2604 50.7058 56.8466 49.7485 57.3892C46.8467 59.0496 43.4931 60 39.9252 60C28.9507 60.0003 20 51.016 20 40.0002C20 28.9843 28.9507 20 39.9252 20Z" fill="white"/>
<path fill-rule="evenodd" clip-rule="evenodd" d="M36.2935 38.7366L41.0313 34.4541L45.2977 39.2097L40.5599 43.4922L36.2935 38.7366Z" fill="white"/>
<path fill-rule="evenodd" clip-rule="evenodd" d="M39.6636 46.9545L44.4014 42.6724L48.6675 47.4283L43.9293 51.7112L39.6636 46.9545Z" fill="white"/>
<path fill-rule="evenodd" clip-rule="evenodd" d="M32.9028 30.6147L37.641 26.3325L41.9071 31.0882L37.1689 35.3703L32.9028 30.6147Z" fill="white"/>
<path fill-rule="evenodd" clip-rule="evenodd" d="M41.5977 28.3106L45.1513 25.0986L48.3509 28.666L44.7972 31.8776L41.5977 28.3106Z" fill="white"/>
<path fill-rule="evenodd" clip-rule="evenodd" d="M47.9126 43.0197L51.4659 39.8081L54.6655 43.3758L51.1122 46.587L47.9126 43.0197Z" fill="white"/>
<path fill-rule="evenodd" clip-rule="evenodd" d="M51.0371 50.2243L54.5911 47.0127L57.7907 50.5793L54.237 53.791L51.0371 50.2243Z" fill="white"/>
<path fill-rule="evenodd" clip-rule="evenodd" d="M52.4695 33.7114L54.8386 31.5703L56.972 33.9486L54.6025 36.0897L52.4695 33.7114Z" fill="white"/>
<path fill-rule="evenodd" clip-rule="evenodd" d="M49.4421 26.6464L51.8109 24.5054L53.9439 26.8837L51.5752 29.0248L49.4421 26.6464Z" fill="white"/>
<path fill-rule="evenodd" clip-rule="evenodd" d="M55.4976 40.7768L57.8666 38.6357L60 41.0137L57.6306 43.1548L55.4976 40.7768Z" fill="white"/>
<path fill-rule="evenodd" clip-rule="evenodd" d="M44.8738 35.4826L48.4267 32.271L51.6263 35.838L48.0734 39.0496L44.8738 35.4826Z" fill="white"/>
</svg>

<svg xmlns="http://www.w3.org/2000/svg" width="80" height="80" fill="none" viewBox="0 0 80 80"><rect width="80" height="80" fill="#135eab" rx="8"/><path fill="#fff" fill-rule="evenodd" d="M39.925 20a19.7 19.7 0 0 1 8.73 2.03q.621.295 1.242.652l-1.833 1.65-2.756-2.861-4.652 4.164-2.763-3.027-8.664 7.84 5.556 6.145L32.6 38.52l5.471 6.154-2.17 1.922 7.818 8.735 4.64-4.289 4.013 4.596a21.4 21.4 0 0 1-2.624 1.751A19.7 19.7 0 0 1 39.925 60C28.951 60 20 51.016 20 40s8.95-20 19.925-20" clip-rule="evenodd"/><path fill="#fff" fill-rule="evenodd" d="m36.294 38.737 4.737-4.283 4.267 4.756-4.738 4.282zm3.37 8.218 4.737-4.283 4.266 4.756-4.738 4.283zm-6.761-16.34 4.738-4.282 4.266 4.755-4.738 4.282zm8.695-2.305 3.552-3.21 3.2 3.567-3.554 3.212zm6.315 14.71 3.553-3.212 3.2 3.568-3.554 3.211zm3.124 7.204 3.554-3.211 3.2 3.566-3.554 3.212zm1.433-16.513 2.369-2.14 2.133 2.378-2.37 2.14zm-3.028-7.065 2.369-2.14 2.133 2.378-2.369 2.14zm6.056 14.131 2.369-2.141L60 41.014l-2.37 2.14zm-10.624-5.294 3.553-3.212 3.2 3.567-3.554 3.212z" clip-rule="evenodd"/></svg>
